X:255
T:Musical Priest
Z: id:dc-reel-235
M:C
L:1/8
K:B Dorian
BA|FBBA B3d|cBAf ecBA|FBBA BcdB|cBAc B2:|!
Bc|d3c dfed|cAeA fAec|dcBc defb|afec B2:|!
Bc|dBB2 bafb|afec ABce|dBB2 bafb|afec B2:|!

